X:1
T:Nolite confidere
T:Jean Mouton
T:Source : Bicinia---Tomus I---Wittemberg---G.Rhau---1545. Editor : André Vierendeels (15/06/17).
T:Notes : Original clefs :   G2, C2 Original note values have been halved Editorial accidentals above the staff
T:Nolite confidere
T:©
T:©
C:Jean Mouton
Z:©
%%score [ 1 2 ]
L:1/8
Q:1/4=120
M:2/2
K:C
V:1 treble nm="Soprano" snm="S"
V:2 treble nm="Alto" snm="A"
V:1
 z8 | z8 | z4 G4 | B3 c de d2- | d2 cB c2 d2 | e4 e4 | d4 z2 G2 | A2 B2 c3 B | G2 B2 A4 | %9
w: ||No-|li- * * * *|* * * te con-|fi- de-|re in|prin- ci- * *|* pi- bus,|
 z2 G2 B3 c | de d4 cB | c2 d2 e4 | e4 d4 | z2 G2 A2 B2 | c3 d ef e2- | e2 d2 c2 BA | B4 A2 DE | %17
w: ne- que _|_ _ in _ _|_ _ fi-|li- is,|ho- mi- num|in _ _ _ qui-|* bus non _ _|_ est sa- *|
 FGAB cd e2- | ed d4 c2 | d4 f4 | f2 f2 e2 d2 | cBcd ec d2- | d2 c2 B4 | A4 z2 A2- | ABcd ed f2 | %25
w: ||lus, bo-|num est con- fi-|* * * * * * de-||re in|_ _ _ _ _ _ _|
 edcB c2 dc |"^#" BA A4 G2 | A4 c4 | c2 c2 B2 A2 | GABc d3 c | BA c2 B2 A2- | AG G4 F2 | G8 |] %33
w: Do- * * * * * *|* * * mi-|no, quam|con- fi- de- re|in _ _ _ _ _|_ _ ho- * *|* * mi- *|ne.|
V:2
 G,4 B,3 C | DE D4 CB, | C2 D2 E4- | E4 D4 | z2 G,2 A,2 B,2 | C2 B,A, G,2 C2 | D3 E F2 E2 | %7
w: No- li- *|* * te con- fi-|de- * *|* re|in prin- ci-|||
 D4 C2 E2- | EF G4 F2 |"^#" G8- | G8 | z4 C4 | E3 F GA G2- | G2 FE F2 G2 | A8 | G4 z2 C2 | %16
w: |* * * pi-|bus,|_|ne-|que _ _ _ in|_ fi- * * *|li-|is ho-|
 D2 E2 F3 G | AB A4 G2 | F2 ED E4 | D4 z2 D2- | DEFG AG B2 | A3 G/F/ E2 DE |"^#" FG A4 G2 | A4 F4 | %24
w: mi- num in _|_ _ qui- *||bus, non|_ _ _ _ _ _ _|est _ _ _ sa- *||lus, bo-|
 F2 F2 E2 D2 | CB,CD E2 D2- | D2 C2 B,4 | A,4 z2 A,2- |"^#" A,B,CD ED F2 | E2 DC B,A,B,C | %30
w: num est con- si-|de- * * * re in|_ Do- mi-|no, auam|_ _ _ _ _ _ con-|fi- de- * re _ _ _|
 DC E2 D3 C | B,2 G,2 A,4 | G,8 |] %33
w: _ _ in ho- *|* * mi-|ne.|

